svg/account_search.svg

<svg xmlns="http://www.w3.org/2000/svg" viewBox="0 0 24 24"><path d="M15.5 12c2.5 0 4.5 2 4.5 4.5 0 .88-.25 1.71-.69 2.4l3.08 3.1L21 23.39l-3.12-3.07c-.69.43-1.51.68-2.38.68-2.5 0-4.5-2-4.5-4.5s2-4.5 4.5-4.5m0 2a2.5 2.5 0 0 0-2.5 2.5 2.5 2.5 0 0 0 2.5 2.5 2.5 2.5 0 0 0 2.5-2.5 2.5 2.5 0 0 0-2.5-2.5M10 4a4 4 0 0 1 4 4c0 .91-.31 1.75-.82 2.43-.86.32-1.63.83-2.27 1.47L10 12a4 4 0 0 1-4-4 4 4 0 0 1 4-4M2 20v-2c0-2.12 3.31-3.86 7.5-4-.32.78-.5 1.62-.5 2.5 0 1.29.38 2.5 1 3.5z"/></svg>

<?xml version="1.0" encoding="UTF-8"?><!DOCTYPE svg PUBLIC "-//W3C//DTD SVG 1.1//EN" "http://www.w3.org/Graphics/SVG/1.1/DTD/svg11.dtd"><svg xmlns="http://www.w3.org/2000/svg" xmlns:xlink="http://www.w3.org/1999/xlink" version="1.1" id="mdi-account-search" width="24" height="24" viewBox="0 0 24 24"><path d="M15.5,12C18,12 20,14 20,16.5C20,17.38 19.75,18.21 19.31,18.9L22.39,22L21,23.39L17.88,20.32C17.19,20.75 16.37,21 15.5,21C13,21 11,19 11,16.5C11,14 13,12 15.5,12M15.5,14A2.5,2.5 0 0,0 13,16.5A2.5,2.5 0 0,0 15.5,19A2.5,2.5 0 0,0 18,16.5A2.5,2.5 0 0,0 15.5,14M10,4A4,4 0 0,1 14,8C14,8.91 13.69,9.75 13.18,10.43C12.32,10.75 11.55,11.26 10.91,11.9L10,12A4,4 0 0,1 6,8A4,4 0 0,1 10,4M2,20V18C2,15.88 5.31,14.14 9.5,14C9.18,14.78 9,15.62 9,16.5C9,17.79 9.38,19 10,20H2Z" /></svg>
